symbols/web/electric_bike/materialsymbolsoutlined/electric_bike_wght300_40px.svg

<svg xmlns="http://www.w3.org/2000/svg" height="40" width="40"><path d="M8.208 27.917q-3.291 0-5.541-2.271-2.25-2.271-2.25-5.563 0-3.25 2.271-5.52 2.27-2.271 5.52-2.271 2.917 0 5.104 1.896Q15.5 16.083 15.875 19h2.542l-3.5-9.833h-2.834V7.083h7.25v2.084h-2.208l1.125 3.125h9.542l-2.875-7.834q-.042-.125-.167-.208-.125-.083-.25-.083h-3.958V2.083h3.833q.917 0 1.583.459.667.458.959 1.291l3.125 8.417h1.75q3.208 0 5.5 2.271 2.291 2.271 2.291 5.479 0 3.25-2.271 5.562-2.27 2.313-5.52 2.313-2.959 0-5.146-1.937-2.188-1.938-2.604-4.855h-8.167q-.375 2.959-2.583 4.896-2.209 1.938-5.084 1.938Zm0-2.084q2.042 0 3.563-1.312 1.521-1.313 2.021-3.438H8.875V19h4.917q-.5-2.125-2.042-3.354-1.542-1.229-3.542-1.229-2.416 0-4.062 1.645Q2.5 17.708 2.5 20.083q0 2.417 1.646 4.084 1.646 1.666 4.062 1.666ZM20.667 19h3.375q.166-1.042.77-2.417.605-1.375 1.688-2.208H19Zm11.125 6.833q2.375 0 4.02-1.666 1.646-1.667 1.646-4.084 0-2.375-1.646-4.021-1.645-1.645-4.02-1.645h-.521q-.229 0-.479.041l1.666 4.667-1.958.708-1.708-4.666q-1.334.791-2.021 2.125-.688 1.333-.688 2.791 0 2.417 1.646 4.084 1.646 1.666 4.063 1.666ZM21.458 38.042l-8.916-4.5h5.875V30.5l9 4.542h-5.959ZM8.167 20.083Zm23.625 0Z"/></svg>

<svg xmlns="http://www.w3.org/2000/svg" height="40" width="40"><path d="M8.208 27.917Q4.917 27.917 2.667 25.646Q0.417 23.375 0.417 20.083Q0.417 16.833 2.688 14.563Q4.958 12.292 8.208 12.292Q11.125 12.292 13.312 14.188Q15.5 16.083 15.875 19H18.417L14.917 9.167H12.083V7.083H19.333V9.167H17.125L18.25 12.292H27.792L24.917 4.458Q24.875 4.333 24.75 4.25Q24.625 4.167 24.5 4.167H20.542V2.083H24.375Q25.292 2.083 25.958 2.542Q26.625 3 26.917 3.833L30.042 12.25H31.792Q35 12.25 37.292 14.521Q39.583 16.792 39.583 20Q39.583 23.25 37.312 25.562Q35.042 27.875 31.792 27.875Q28.833 27.875 26.646 25.938Q24.458 24 24.042 21.083H15.875Q15.5 24.042 13.292 25.979Q11.083 27.917 8.208 27.917ZM8.208 25.833Q10.25 25.833 11.771 24.521Q13.292 23.208 13.792 21.083H8.875V19H13.792Q13.292 16.875 11.75 15.646Q10.208 14.417 8.208 14.417Q5.792 14.417 4.146 16.062Q2.5 17.708 2.5 20.083Q2.5 22.5 4.146 24.167Q5.792 25.833 8.208 25.833ZM20.667 19H24.042Q24.208 17.958 24.812 16.583Q25.417 15.208 26.5 14.375H19ZM31.792 25.833Q34.167 25.833 35.812 24.167Q37.458 22.5 37.458 20.083Q37.458 17.708 35.812 16.062Q34.167 14.417 31.792 14.417Q31.5 14.417 31.271 14.417Q31.042 14.417 30.792 14.458L32.458 19.125L30.5 19.833L28.792 15.167Q27.458 15.958 26.771 17.292Q26.083 18.625 26.083 20.083Q26.083 22.5 27.729 24.167Q29.375 25.833 31.792 25.833ZM21.458 38.042 12.542 33.542H18.417V30.5L27.417 35.042H21.458ZM8.167 20.083Q8.167 20.083 8.167 20.083Q8.167 20.083 8.167 20.083Q8.167 20.083 8.167 20.083Q8.167 20.083 8.167 20.083Q8.167 20.083 8.167 20.083Q8.167 20.083 8.167 20.083Q8.167 20.083 8.167 20.083Q8.167 20.083 8.167 20.083ZM31.792 20.083Q31.792 20.083 31.792 20.083Q31.792 20.083 31.792 20.083Q31.792 20.083 31.792 20.083Q31.792 20.083 31.792 20.083Q31.792 20.083 31.792 20.083Q31.792 20.083 31.792 20.083Q31.792 20.083 31.792 20.083Q31.792 20.083 31.792 20.083Q31.792 20.083 31.792 20.083Q31.792 20.083 31.792 20.083Z"/></svg>
